X: 1
T: The Banks
R: hornpipe
M: 4/4
L: 1/8
K: Fdor
|: (3B,CD | E2 G2 G2 FE | D2 F2 F2 ED | E2 c2 c2 de | =ABcB _AGFE |
G2 B2 B2 cB | A2 c2 c2 de | DEFG AFDF | E2 G2 E2 :||
|: ~g2 | g2 E2 E2 ~g2 | f2 D2 D2 ~g2 | e2 c2 c2 fe | dcB=A B2 B2 |
DBfB DBfB | EBgB EBgB | =ABcd ecAc | B=ABc B_AGF |
EGBG eBFE | DFBF dFED | CEGE cBAG | FGFE DCB,A, |
G,EBE G,EBE | A,EcE A,EcE | DEFG AFDF | E2 G2 E2 :|


Tune 922	Setting 14112

